X: 262
T: Fang fengzheng
%%abc-version 2.0
%%abcx-abcm2ps-target-version 5.9.1 (29 Sep 2008)
%%abc-creator hum2abc beta
%%abcx-conversion-date 2013/10/02 07:52:29
%%abc-edited-by Helmut Schaffrath
%%humdrum-veritas 942121729
%%humdrum-veritas-data 571106766
%%continueall 1
%%barnumbers 0
L: 1/16
M: 2/4
K: G
d g e d d B A B [I:setbarnb 1]| 
d g e d d B A B | 
G2> E2 d g e d | 
d B A EG4 | 
G A B2 g2 e d | 
G A B B d B A G | 
G E D2 d2 E G | 
A B G ED4 | 
G A B B d B A G | 
G E D2 d2 E G | 
A B G ED4 |]  



